bernoullicharts/sqrt_x__bits.svg

<?xml version="1.0" encoding="utf-8" standalone="no"?>
<!DOCTYPE svg PUBLIC "-//W3C//DTD SVG 1.1//EN"
  "http://www.w3.org/Graphics/SVG/1.1/DTD/svg11.dtd">
<!-- Created with matplotlib (https://matplotlib.org/) -->
<svg height="345.6pt" version="1.1" viewBox="0 0 460.8 345.6" width="460.8pt" xmlns="http://www.w3.org/2000/svg" xmlns:xlink="http://www.w3.org/1999/xlink">
 <defs>
  <style type="text/css">
*{stroke-linecap:butt;stroke-linejoin:round;}
  </style>
 </defs>
 <g id="figure_1">
  <g id="patch_1">
   <path d="M 0 345.6 
L 460.8 345.6 
L 460.8 0 
L 0 0 
z
" style="fill:#ffffff;"/>
  </g>
  <g id="axes_1">
   <g id="patch_2">
    <path d="M 57.6 307.584 
L 414.72 307.584 
L 414.72 41.472 
L 57.6 41.472 
z
" style="fill:#ffffff;"/>
   </g>
   <g id="matplotlib.axis_1">
    <g id="xtick_1">
     <g id="line2d_1">
      <defs>
       <path d="M 0 0 
L 0 3.5 
" id="m49b07f7e69" style="stroke:#000000;stroke-width:0.8;"/>
      </defs>
      <g>
       <use style="stroke:#000000;stroke-width:0.8;" x="73.800255" xlink:href="#m49b07f7e69" y="307.584"/>
      </g>
     </g>
     <g id="text_1">
      <text style="font-family:DejaVu Sans;font-size:10px;font-style:normal;font-weight:normal;text-anchor:middle;" transform="rotate(-0, 73.800255, 322.182437)" x="73.800255" y="322.182437">0.0</text>
     </g>
    </g>
    <g id="xtick_2">
     <g id="line2d_2">
      <g>
       <use style="stroke:#000000;stroke-width:0.8;" x="138.744153" xlink:href="#m49b07f7e69" y="307.584"/>
      </g>
     </g>
     <g id="text_2">
      <text style="font-family:DejaVu Sans;font-size:10px;font-style:normal;font-weight:normal;text-anchor:middle;" transform="rotate(-0, 138.744153, 322.182437)" x="138.744153" y="322.182437">0.2</text>
     </g>
    </g>
    <g id="xtick_3">
     <g id="line2d_3">
      <g>
       <use style="stroke:#000000;stroke-width:0.8;" x="203.688051" xlink:href="#m49b07f7e69" y="307.584"/>
      </g>
     </g>
     <g id="text_3">
      <text style="font-family:DejaVu Sans;font-size:10px;font-style:normal;font-weight:normal;text-anchor:middle;" transform="rotate(-0, 203.688051, 322.182437)" x="203.688051" y="322.182437">0.4</text>
     </g>
    </g>
    <g id="xtick_4">
     <g id="line2d_4">
      <g>
       <use style="stroke:#000000;stroke-width:0.8;" x="268.631949" xlink:href="#m49b07f7e69" y="307.584"/>
      </g>
     </g>
     <g id="text_4">
      <text style="font-family:DejaVu Sans;font-size:10px;font-style:normal;font-weight:normal;text-anchor:middle;" transform="rotate(-0, 268.631949, 322.182437)" x="268.631949" y="322.182437">0.6</text>
     </g>
    </g>
    <g id="xtick_5">
     <g id="line2d_5">
      <g>
       <use style="stroke:#000000;stroke-width:0.8;" x="333.575847" xlink:href="#m49b07f7e69" y="307.584"/>
      </g>
     </g>
     <g id="text_5">
      <text style="font-family:DejaVu Sans;font-size:10px;font-style:normal;font-weight:normal;text-anchor:middle;" transform="rotate(-0, 333.575847, 322.182437)" x="333.575847" y="322.182437">0.8</text>
     </g>
    </g>
    <g id="xtick_6">
     <g id="line2d_6">
      <g>
       <use style="stroke:#000000;stroke-width:0.8;" x="398.519745" xlink:href="#m49b07f7e69" y="307.584"/>
      </g>
     </g>
     <g id="text_6">
      <text style="font-family:DejaVu Sans;font-size:10px;font-style:normal;font-weight:normal;text-anchor:middle;" transform="rotate(-0, 398.519745, 322.182437)" x="398.519745" y="322.182437">1.0</text>
     </g>
    </g>
    <g id="text_7">
     <text style="font-family:DejaVu Sans;font-size:10px;font-style:normal;font-weight:normal;text-anchor:middle;" transform="rotate(-0, 236.16, 335.860562)" x="236.16" y="335.860562">Probability</text>
    </g>
   </g>
   <g id="matplotlib.axis_2">
    <g id="ytick_1">
     <g id="line2d_7">
      <defs>
       <path d="M 0 0 
L -3.5 0 
" id="m212a1b1143" style="stroke:#000000;stroke-width:0.8;"/>
      </defs>
      <g>
       <use style="stroke:#000000;stroke-width:0.8;" x="57.6" xlink:href="#m212a1b1143" y="302.628758"/>
      </g>
     </g>
     <g id="text_8">
      <text style="font-family:DejaVu Sans;font-size:10px;font-style:normal;font-weight:normal;text-anchor:end;" transform="rotate(-0, 50.6, 306.427976)" x="50.6" y="306.427976">0</text>
     </g>
    </g>
    <g id="ytick_2">
     <g id="line2d_8">
      <g>
       <use style="stroke:#000000;stroke-width:0.8;" x="57.6" xlink:href="#m212a1b1143" y="266.853418"/>
      </g>
     </g>
     <g id="text_9">
      <text style="font-family:DejaVu Sans;font-size:10px;font-style:normal;font-weight:normal;text-anchor:end;" transform="rotate(-0, 50.6, 270.652637)" x="50.6" y="270.652637">10</text>
     </g>
    </g>
    <g id="ytick_3">
     <g id="line2d_9">
      <g>
       <use style="stroke:#000000;stroke-width:0.8;" x="57.6" xlink:href="#m212a1b1143" y="231.078079"/>
      </g>
     </g>
     <g id="text_10">
      <text style="font-family:DejaVu Sans;font-size:10px;font-style:normal;font-weight:normal;text-anchor:end;" transform="rotate(-0, 50.6, 234.877298)" x="50.6" y="234.877298">20</text>
     </g>
    </g>
    <g id="ytick_4">
     <g id="line2d_10">
      <g>
       <use style="stroke:#000000;stroke-width:0.8;" x="57.6" xlink:href="#m212a1b1143" y="195.30274"/>
      </g>
     </g>
     <g id="text_11">
      <text style="font-family:DejaVu Sans;font-size:10px;font-style:normal;font-weight:normal;text-anchor:end;" transform="rotate(-0, 50.6, 199.101958)" x="50.6" y="199.101958">30</text>
     </g>
    </g>
    <g id="ytick_5">
     <g id="line2d_11">
      <g>
       <use style="stroke:#000000;stroke-width:0.8;" x="57.6" xlink:href="#m212a1b1143" y="159.5274"/>
      </g>
     </g>
     <g id="text_12">
      <text style="font-family:DejaVu Sans;font-size:10px;font-style:normal;font-weight:normal;text-anchor:end;" transform="rotate(-0, 50.6, 163.326619)" x="50.6" y="163.326619">40</text>
     </g>
    </g>
    <g id="ytick_6">
     <g id="line2d_12">
      <g>
       <use style="stroke:#000000;stroke-width:0.8;" x="57.6" xlink:href="#m212a1b1143" y="123.752061"/>
      </g>
     </g>
     <g id="text_13">
      <text style="font-family:DejaVu Sans;font-size:10px;font-style:normal;font-weight:normal;text-anchor:end;" transform="rotate(-0, 50.6, 127.55128)" x="50.6" y="127.55128">50</text>
     </g>
    </g>
    <g id="ytick_7">
     <g id="line2d_13">
      <g>
       <use style="stroke:#000000;stroke-width:0.8;" x="57.6" xlink:href="#m212a1b1143" y="87.976721"/>
      </g>
     </g>
     <g id="text_14">
      <text style="font-family:DejaVu Sans;font-size:10px;font-style:normal;font-weight:normal;text-anchor:end;" transform="rotate(-0, 50.6, 91.77594)" x="50.6" y="91.77594">60</text>
     </g>
    </g>
    <g id="ytick_8">
     <g id="line2d_14">
      <g>
       <use style="stroke:#000000;stroke-width:0.8;" x="57.6" xlink:href="#m212a1b1143" y="52.201382"/>
      </g>
     </g>
     <g id="text_15">
      <text style="font-family:DejaVu Sans;font-size:10px;font-style:normal;font-weight:normal;text-anchor:end;" transform="rotate(-0, 50.6, 56.000601)" x="50.6" y="56.000601">70</text>
     </g>
    </g>
    <g id="text_16">
     <text style="font-family:DejaVu Sans;font-size:10px;font-style:normal;font-weight:normal;text-anchor:middle;" transform="rotate(-90, 31.795312, 174.528)" x="31.795312" y="174.528">Average Bits Consumed Per Call</text>
    </g>
   </g>
   <g id="line2d_15">
    <path clip-path="url(#p20cd678f37)" d="M 73.832727 53.568 
L 77.112066 153.69602 
L 80.391405 213.562473 
L 83.670744 222.026918 
L 86.950083 240.601474 
L 90.229421 253.559302 
L 93.50876 251.992342 
L 96.788099 249.09454 
L 100.067438 260.71437 
L 103.346777 261.959352 
L 106.626116 262.839425 
L 109.905455 266.073516 
L 113.184793 265.150512 
L 116.464132 264.549486 
L 119.743471 272.885141 
L 123.02281 271.668779 
L 126.302149 271.947827 
L 129.581488 275.038816 
L 132.860826 274.9458 
L 136.140165 275.775788 
L 139.419504 274.895715 
L 142.698843 280.355031 
L 145.978182 281.049073 
L 149.257521 279.474958 
L 152.53686 279.839867 
L 155.816198 282.143798 
L 159.095537 278.287217 
L 162.374876 282.787755 
L 165.654215 282.029317 
L 168.933554 282.394226 
L 172.212893 285.163237 
L 175.492231 283.775154 
L 178.77157 283.052492 
L 182.050909 284.440575 
L 185.330248 285.943139 
L 188.609587 285.299183 
L 191.888926 285.835813 
L 195.168264 286.630026 
L 198.447603 286.00038 
L 201.726942 287.295447 
L 205.006281 287.023555 
L 208.28562 287.939403 
L 211.564959 287.832077 
L 214.844298 287.767682 
L 218.123636 287.374153 
L 221.402975 289.263091 
L 224.682314 289.520673 
L 227.961653 288.633445 
L 231.240992 289.785411 
L 234.520331 289.721015 
L 237.799669 290.050148 
L 241.079008 289.363262 
L 244.358347 290.085924 
L 247.637686 289.914202 
L 250.917025 290.78712 
L 254.196364 290.19325 
L 257.475702 290.71557 
L 260.755041 290.923067 
L 264.03438 291.051858 
L 267.313719 291.380991 
L 270.593058 291.581333 
L 273.872397 291.509782 
L 277.151736 291.602798 
L 280.431074 292.196669 
L 283.710413 291.7459 
L 286.989752 291.609953 
L 290.269091 291.989172 
L 293.54843 292.990881 
L 296.827769 292.261064 
L 300.107107 292.411321 
L 303.386446 292.740454 
L 306.665785 293.534666 
L 309.945124 292.497182 
L 313.224463 292.854935 
L 316.503802 293.262774 
L 319.78314 293.155448 
L 323.062479 293.641992 
L 326.341818 293.978281 
L 329.621157 293.42734 
L 332.900496 293.742163 
L 336.179835 293.785094 
L 339.459174 293.670613 
L 342.738512 294.321724 
L 346.017851 294.171468 
L 349.29719 293.799404 
L 352.576529 294.336034 
L 355.855868 294.543531 
L 359.135207 294.615082 
L 362.414545 294.48629 
L 365.693884 294.901284 
L 368.973223 294.536376 
L 372.252562 294.665167 
L 375.531901 294.765338 
L 378.81124 295.073006 
L 382.090579 294.586461 
L 385.369917 295.151712 
L 388.649256 295.488 
L 391.928595 295.015766 
L 395.207934 295.194642 
L 398.487273 295.437915 
" style="fill:none;stroke:#1f77b4;stroke-linecap:square;stroke-width:1.5;"/>
   </g>
   <g id="patch_3">
    <path d="M 57.6 307.584 
L 57.6 41.472 
" style="fill:none;stroke:#000000;stroke-linecap:square;stroke-linejoin:miter;stroke-width:0.8;"/>
   </g>
   <g id="patch_4">
    <path d="M 414.72 307.584 
L 414.72 41.472 
" style="fill:none;stroke:#000000;stroke-linecap:square;stroke-linejoin:miter;stroke-width:0.8;"/>
   </g>
   <g id="patch_5">
    <path d="M 57.6 307.584 
L 414.72 307.584 
" style="fill:none;stroke:#000000;stroke-linecap:square;stroke-linejoin:miter;stroke-width:0.8;"/>
   </g>
   <g id="patch_6">
    <path d="M 57.6 41.472 
L 414.72 41.472 
" style="fill:none;stroke:#000000;stroke-linecap:square;stroke-linejoin:miter;stroke-width:0.8;"/>
   </g>
   <g id="text_17">
    <text style="font-family:DejaVu Sans;font-size:12px;font-style:normal;font-weight:normal;text-anchor:middle;" transform="rotate(-0, 236.16, 35.472)" x="236.16" y="35.472">Avg. Bits Consumed by sqrt(x) Algorithm</text>
   </g>
   <g id="legend_1">
    <g id="patch_7">
     <path d="M 342.409063 64.150125 
L 407.72 64.150125 
Q 409.72 64.150125 409.72 62.150125 
L 409.72 48.472 
Q 409.72 46.472 407.72 46.472 
L 342.409063 46.472 
Q 340.409063 46.472 340.409063 48.472 
L 340.409063 62.150125 
Q 340.409063 64.150125 342.409063 64.150125 
z
" style="fill:#ffffff;opacity:0.8;stroke:#cccccc;stroke-linejoin:miter;"/>
    </g>
    <g id="line2d_16">
     <path d="M 344.409063 54.570438 
L 364.409063 54.570438 
" style="fill:none;stroke:#1f77b4;stroke-linecap:square;stroke-width:1.5;"/>
    </g>
    <g id="line2d_17"/>
    <g id="text_18">
     <text style="font-family:DejaVu Sans;font-size:10px;font-style:normal;font-weight:normal;text-anchor:start;" transform="rotate(-0, 372.409063, 58.070438)" x="372.409063" y="58.070438">sqrt(x)</text>
    </g>
   </g>
  </g>
 </g>
 <defs>
  <clipPath id="p20cd678f37">
   <rect height="266.112" width="357.12" x="57.6" y="41.472"/>
  </clipPath>
 </defs>
</svg>

<svg height="460.8" viewBox="0 0 460.8 345.6" width="614.4" xmlns="http://www.w3.org/2000/svg" xmlns:xlink="http://www.w3.org/1999/xlink"><defs><style>*{stroke-linecap:butt;stroke-linejoin:round}</style></defs><g id="figure_1"><path d="M0 345.6h460.8V0H0z" fill="#fff" id="patch_1"/><g id="axes_1"><path d="M57.6 307.584h357.12V41.472H57.6z" fill="#fff" id="patch_2"/><g id="matplotlib.axis_1"><g id="xtick_1"><g id="line2d_1"><defs><path d="M0 0v3.5" id="m49b07f7e69" stroke="#000" stroke-width=".8"/></defs><use x="73.8" xlink:href="#m49b07f7e69" y="307.584" stroke="#000" stroke-width=".8"/></g><text x="73.8" y="322.182" font-family="DejaVu Sans" font-size="10" font-weight="400" text-anchor="middle" id="text_1">0.0</text></g><g id="xtick_2"><use x="138.744" xlink:href="#m49b07f7e69" y="307.584" stroke="#000" stroke-width=".8" id="line2d_2"/><text x="138.744" y="322.182" font-family="DejaVu Sans" font-size="10" font-weight="400" text-anchor="middle" id="text_2">0.2</text></g><g id="xtick_3"><use x="203.688" xlink:href="#m49b07f7e69" y="307.584" stroke="#000" stroke-width=".8" id="line2d_3"/><text x="203.688" y="322.182" font-family="DejaVu Sans" font-size="10" font-weight="400" text-anchor="middle" id="text_3">0.4</text></g><g id="xtick_4"><use x="268.632" xlink:href="#m49b07f7e69" y="307.584" stroke="#000" stroke-width=".8" id="line2d_4"/><text x="268.632" y="322.182" font-family="DejaVu Sans" font-size="10" font-weight="400" text-anchor="middle" id="text_4">0.6</text></g><g id="xtick_5"><use x="333.576" xlink:href="#m49b07f7e69" y="307.584" stroke="#000" stroke-width=".8" id="line2d_5"/><text x="333.576" y="322.182" font-family="DejaVu Sans" font-size="10" font-weight="400" text-anchor="middle" id="text_5">0.8</text></g><g id="xtick_6"><use x="398.52" xlink:href="#m49b07f7e69" y="307.584" stroke="#000" stroke-width=".8" id="line2d_6"/><text x="398.52" y="322.182" font-family="DejaVu Sans" font-size="10" font-weight="400" text-anchor="middle" id="text_6">1.0</text></g><text x="236.16" y="335.861" font-family="DejaVu Sans" font-size="10" font-weight="400" text-anchor="middle" id="text_7">Probability</text></g><g id="matplotlib.axis_2"><g id="ytick_1"><g id="line2d_7"><defs><path d="M0 0h-3.5" id="m212a1b1143" stroke="#000" stroke-width=".8"/></defs><use x="57.6" xlink:href="#m212a1b1143" y="302.629" stroke="#000" stroke-width=".8"/></g><text x="50.6" y="306.428" font-family="DejaVu Sans" font-size="10" font-weight="400" text-anchor="end" id="text_8">0</text></g><g id="ytick_2"><use x="57.6" xlink:href="#m212a1b1143" y="266.853" stroke="#000" stroke-width=".8" id="line2d_8"/><text x="50.6" y="270.653" font-family="DejaVu Sans" font-size="10" font-weight="400" text-anchor="end" id="text_9">10</text></g><g id="ytick_3"><use x="57.6" xlink:href="#m212a1b1143" y="231.078" stroke="#000" stroke-width=".8" id="line2d_9"/><text x="50.6" y="234.877" font-family="DejaVu Sans" font-size="10" font-weight="400" text-anchor="end" id="text_10">20</text></g><g id="ytick_4"><use x="57.6" xlink:href="#m212a1b1143" y="195.303" stroke="#000" stroke-width=".8" id="line2d_10"/><text x="50.6" y="199.102" font-family="DejaVu Sans" font-size="10" font-weight="400" text-anchor="end" id="text_11">30</text></g><g id="ytick_5"><use x="57.6" xlink:href="#m212a1b1143" y="159.527" stroke="#000" stroke-width=".8" id="line2d_11"/><text x="50.6" y="163.327" font-family="DejaVu Sans" font-size="10" font-weight="400" text-anchor="end" id="text_12">40</text></g><g id="ytick_6"><use x="57.6" xlink:href="#m212a1b1143" y="123.752" stroke="#000" stroke-width=".8" id="line2d_12"/><text x="50.6" y="127.551" font-family="DejaVu Sans" font-size="10" font-weight="400" text-anchor="end" id="text_13">50</text></g><g id="ytick_7"><use x="57.6" xlink:href="#m212a1b1143" y="87.977" stroke="#000" stroke-width=".8" id="line2d_13"/><text x="50.6" y="91.776" font-family="DejaVu Sans" font-size="10" font-weight="400" text-anchor="end" id="text_14">60</text></g><g id="ytick_8"><use x="57.6" xlink:href="#m212a1b1143" y="52.201" stroke="#000" stroke-width=".8" id="line2d_14"/><text x="50.6" y="56.001" font-family="DejaVu Sans" font-size="10" font-weight="400" text-anchor="end" id="text_15">70</text></g><text transform="rotate(-90 31.795 174.528)" x="31.795" y="174.528" font-family="DejaVu Sans" font-size="10" font-weight="400" text-anchor="middle" id="text_16">Average Bits Consumed Per Call</text></g><path clip-path="url(#p20cd678f37)" d="M73.833 53.568l3.28 100.128 3.278 59.866 3.28 8.465 3.28 18.574 3.278 12.958 3.28-1.567 3.28-2.897 3.278 11.62 3.28 1.244 3.28.88 3.278 3.235 3.28-.923 3.28-.602 3.278 8.336 3.28-1.216 3.28.279 3.278 3.09 3.28-.092 3.28.83 3.279-.88 3.279 5.459 3.28.694 3.279-1.574 3.279.365 3.28 2.304 3.279-3.857 3.279 4.5 3.28-.758 3.279.365 3.279 2.77 3.28-1.389 3.279-.723 3.279 1.389 3.28 1.502 3.279-.644 3.279.537 3.28.794 3.279-.63 3.279 1.295 3.28-.271 3.279.915 3.279-.107 3.28-.064 3.279-.394 3.279 1.89 3.28.257 3.279-.888 3.279 1.152 3.28-.064 3.279.33 3.279-.688 3.28.723 3.279-.172 3.279.873 3.28-.594 3.279.523 3.279.207 3.28.129 3.279.329 3.28.2 3.278-.071 3.28.093 3.28.594 3.278-.451 3.28-.136 3.28.38 3.278 1 3.28-.729 3.28.15 3.278.33 3.28.794 3.28-1.038 3.278.358 3.28.408 3.28-.108 3.278.487 3.28.336 3.28-.55 3.278.314 3.28.043 3.28-.114 3.279.65 3.279-.15 3.28-.372 3.279.537 3.279.208 3.28.071 3.279-.129 3.279.415 3.28-.365 3.279.13 3.279.1 3.28.307 3.279-.487 3.279.566 3.28.336 3.279-.472 3.279.179 3.28.243" fill="none" stroke="#1f77b4" stroke-linecap="square" stroke-width="1.5" id="line2d_15"/><path d="M57.6 307.584V41.472" fill="none" stroke="#000" stroke-linecap="square" stroke-width=".8" id="patch_3"/><path d="M414.72 307.584V41.472" fill="none" stroke="#000" stroke-linecap="square" stroke-width=".8" id="patch_4"/><path d="M57.6 307.584h357.12" fill="none" stroke="#000" stroke-linecap="square" stroke-width=".8" id="patch_5"/><path d="M57.6 41.472h357.12" fill="none" stroke="#000" stroke-linecap="square" stroke-width=".8" id="patch_6"/><text x="236.16" y="35.472" font-family="DejaVu Sans" font-size="12" font-weight="400" text-anchor="middle" id="text_17">Avg. Bits Consumed by sqrt(x) Algorithm</text><g id="legend_1"><path d="M342.41 64.15h65.31q2 0 2-2V48.472q0-2-2-2h-65.31q-2 0-2 2V62.15q0 2 2 2z" fill="#fff" opacity=".8" stroke="#ccc" id="patch_7"/><path d="M344.41 54.57h20" fill="none" stroke="#1f77b4" stroke-linecap="square" stroke-width="1.5" id="line2d_16"/><text x="372.409" y="58.07" font-family="DejaVu Sans" font-size="10" font-weight="400" id="text_18">sqrt(x)</text></g></g></g><defs><clipPath id="p20cd678f37"><path d="M57.6 41.472h357.12v266.112H57.6z"/></clipPath></defs></svg>
